X: 3011
T: The_Highland_Chieftain
C: by Nath. Gow.
%R: air, strathspey
N: This is version 2, for ABC software that understands voice overlays.
B: Niel Gow & Sons "A Third Collection of Strathspey Reels, etc." v.3 p.1 #1
Z: 2022 John Chambers <jc:trillian.mit.edu>
M: C
L: 1/8
K: D
% - - - - - - - - - -
V: 1 staves=2
g |\
!p!Tf>e{c}d>B AFFd | (A<F)A>E {E}F2Fg | Tf>ed>B A>B {B}d>B | (A<F)F>D {D}E2Eg & x4 C2Cx || Tf>de>f d>fB>d |
A>dAF {F}A2AB/!f!c/ | Td>f {e}dc/B/ AFFd | !p!(A<F)TF>D {D}E2E & x4 C2C |]| B | !f!A<FTF>B A<FF>d | AF {F}A>E {E}TF2FB | A<FA>B
Td>e{e}f>e | {c}d>BAF {F}E2EB & x4 C2Cz || (A<F)F>d (A<F)F>B | (A<F){F}A>E {E}F2F>B | !f![AD]>B [dF]>f e<fHd>B | A>B {AB}dF {F}E2E & x4 C2C |]
% - - - - - - - - - -
% Voice 2 preserves the staff layout in the book.
V: 2 clef=bass middle=d
z | !p!d2fg f2d2 | d2c2 dA D2 | d2bg f2dg | f2d2 AaAz || d2a2 b2g2 |
f2d2 Dd f!f!g | fd aA d2D2 | !p!d2B^g aeA |]| =g | !f!f3g f2D2 & d4 d2z2 | d2c2 dA D2 | d2fg
fedc | BGFD AaA2 || x2a2 x3g & d2d2 d3d | d2c2 dA dg | !f![F2f2] [D2d2] [A2a2] Hbg | f2d2 AaA |]


